X:606
%%etbk:tnset id:346,pos:1,rep:3x,ant:
%%etbk:pldat 2014-09-04T18:49,2014-09-03T18:01,2014-09-02T17:58,2014-09-01T18:52,2014-09-01T17:52,2014-08-31T11:47,2014-08-28T17:56,2014-08-27T19:20,2014-08-27T17:50,2014-08-26T17:08,2014-08-26T15:17,2014-08-25T18:44,2014-08-24T16:49
T: Catalina (C)
Z: Piano Box Version by Martin Fleischmann
H: Created 2014-08-24 /  Last Modified 2014-08-26
R: waltz
M: 3/4
L: 1/8
K:Cmaj
"C"!1!C2C2C2 | "G"!2!D4 EF | "C"!5!G4 E2 | !1!C2 !5!c3 B | "F"!3!A4 G!1!F | "C"!2!EF !4!G3 A | "G"!4!G2 E2 F2 | !1!D6|
"G"!4!G3 AGE | !3!F2 E2 !1!D2 | "C"!1!C2 !5!c3 !2!G | "F"!3!A2 c4 | "C"G3 AGA | "G"G2 E2 F2 | D4 C2 | "C"C6 |
"G"!1!G,2 !4!F3 E | !2!D6 | G,2 F3 E | F2 E2 D2 | "C"!1!C2 !5!G3 F | !3!E6 | !1!C3 !2!B,!1!CD | !3!E2 !4!F2 !2!G2 |
|:"F"!3!A2 !5!c3 B | A6 | !3!A2 !4!c3 !5!d | !4!c2 !4!B2 !3!A2 | "C"!2!G2 c3 A | G3 A!2!G!1!F | !1!E2 c3 A | G2 !1!E2 !3!E2 |
"G"E2 F2 E2 | D6 | G,2 F3 E | F2 E2 D2 |1 "C"!3!E4 DE | "G"!4!F4 EF | "C"!2!G3 !1!EGA | "C7"!4!_B2 A2 G2 :|
|2 "C"C4C2 |D4D2 |E4E2|F2E2D2| 
C6||


